X: 36682
T: She Hasn't The Thing She Thought She Had
R: slide
M: 12/8
K: Dmajor
|:F2 A AFA Bcd A2 G|F2 A D2 F E3 EDE|
F2 A AFA Bcd A2 G|F2 A D2 F D3 D3:|
|:fed B2 A Bcd A3|f2 e def e3 ede|
fed B2 A Bcd A2 G|F2 A E2 A D3 D3:|

